src/ui/draw.svg

<?xml version="1.0" encoding="UTF-8"?><svg xmlns="http://www.w3.org/2000/svg" width="32" height="32" viewBox="0 0 32 32"><defs><style>.uuid-71b001f0-c198-47ad-b6b5-3c1b3100c8ac{fill:none;}.uuid-3803ccb8-5d1b-473d-857c-f699638dc3b7{fill:#151515;}</style></defs><g id="uuid-21f0d51c-4e03-4a48-a6f3-16503dbf2bcf"><rect class="uuid-71b001f0-c198-47ad-b6b5-3c1b3100c8ac" width="32" height="32"/></g><g id="uuid-fcc112b9-003a-4e4a-a5ad-883fa129aea3"><path class="uuid-3803ccb8-5d1b-473d-857c-f699638dc3b7" d="M26.5166,11.10254L17.06055,1.64648c-.58398-.58594-1.53711-.58594-2.12109,0L5.4834,11.10254c-.23926.23926-.3418.58398-.27148.91504l2.78809,13.08954v4.39288c0,.82715.67285,1.5,1.5,1.5h13c.82715,0,1.5-.67285,1.5-1.5v-4.39288l2.78809-13.08954c.07031-.33105-.03223-.67578-.27148-.91504ZM16,13c1.09998,0,2,.89996,2,2,0,1.09998-.90002,2-2,2s-2-.90002-2-2c0-1.10004.90002-2,2-2ZM10,29v-3h12v3h-12ZM22.19025,24h-12.38049l-2.5285-11.86719,7.71875-7.71875v6.71594c-1.72998.44-3,2.01001-3,3.87,0,2.20996,1.78998,4,4,4s4-1.79004,4-4c0-1.85999-1.27002-3.42999-3-3.87v-6.71594l7.71875,7.71875-2.5285,11.86719Z"/></g></svg>

<svg xmlns="http://www.w3.org/2000/svg" viewBox="0 0 32 32">
  <path d="m26.517 11.103-9.456-9.457a1.5 1.5 0 0 0-2.121 0l-9.457 9.457a1 1 0 0 0-.271.915L8 25.108v4.393c0 .827.673 1.5 1.5 1.5h13c.827 0 1.5-.673 1.5-1.5v-4.393l2.788-13.09a1.002 1.002 0 0 0-.271-.915ZM16 13c1.1 0 2 .9 2 2s-.9 2-2 2-2-.9-2-2 .9-2 2-2Zm-6 16v-3h12v3H10Zm12.19-5H9.81L7.281 12.133 15 4.414v6.716A3.999 3.999 0 0 0 16 19a3.999 3.999 0 0 0 1-7.87V4.414l7.719 7.719L22.19 24Z"/>
</svg>
